fa/baby-carriage.svg

<svg xmlns="http://www.w3.org/2000/svg" viewBox="0 0 512 512" height="1em" width="1em">
  <path d="M255.1 192H.14c2.6-74.1 41.2-139.05 98.84-177.9 13.22-8.925 30.82-4.316 39.92 8.82L255.1 192zM384 160c0-35.3 28.7-64 64-64h32c17.7 0 32 14.3 32 32s-14.3 32-32 32h-32v64c0 25.2-5.8 50.2-17.1 73.5-11.2 23.3-27.7 44.4-48.5 62.3-20.8 17.8-45.5 31.9-72.7 41.6-27.2 9.6-56.3 14.6-86.6 14.6-28.5 0-57.6-5-84.8-14.6-27.2-9.7-51.89-23.8-72.69-41.6-20.8-17.9-37.3-39-48.56-62.3C5.794 274.2 0 249.2 0 224h384v-64zM31.1 464c0-26.5 22.39-48 48-48 27.4 0 48 21.5 48 48s-20.6 48-48 48c-25.61 0-48-21.5-48-48zm384.9 0c0 26.5-21.5 48-48 48s-48-21.5-48-48 21.5-48 48-48 48 21.5 48 48z"/>
</svg>

<svg xmlns="http://www.w3.org/2000/svg" viewBox="0 0 512 512" height="1em" width="1em">
  <path d="M255.1 192H.1398C2.741 117.9 41.34 52.95 98.98 14.1C112.2 5.175 129.8 9.784 138.9 22.92L255.1 192zM384 160C384 124.7 412.7 96 448 96H480C497.7 96 512 110.3 512 128C512 145.7 497.7 160 480 160H448V224C448 249.2 442.2 274.2 430.9 297.5C419.7 320.8 403.2 341.9 382.4 359.8C361.6 377.6 336.9 391.7 309.7 401.4C282.5 411 253.4 416 223.1 416C194.6 416 165.5 411 138.3 401.4C111.1 391.7 86.41 377.6 65.61 359.8C44.81 341.9 28.31 320.8 17.05 297.5C5.794 274.2 0 249.2 0 224H384L384 160zM31.1 464C31.1 437.5 53.49 416 79.1 416C106.5 416 127.1 437.5 127.1 464C127.1 490.5 106.5 512 79.1 512C53.49 512 31.1 490.5 31.1 464zM416 464C416 490.5 394.5 512 368 512C341.5 512 320 490.5 320 464C320 437.5 341.5 416 368 416C394.5 416 416 437.5 416 464z"/>
</svg>
